( Generated by T2Laser )
( Image2Gcode for Grbl )
( Start Point: Center )
( Frame Mode : Abs. )
( X Maximum : 84.4 )
( Y Maximum : 99.9 )
( Laser Max : 1000 )
( Feed Rate : 750 )
( Resolution : 0.1 )
( Image Name : text4272.png )
M6 T1
T1
G21
G90
F750
M05
G00X0Y0F750
G92X42.2Y49.95
G90
G00 X0 Y0
T2
G01
M03 S0
X5.2 Y0.2 M03 S0
X5.3 Y0.1 M03 S1000
X5.4 Y0 M03 S0
X5.5 Y0 M03 S0
X5.4 Y0.1 M03 S1000
X5.2 Y0.3 M03 S1000
X5.1 Y0.4 M03 S0
X5.2 Y0.4 M03 S0
X5.3 Y0.3 M03 S1000
X5.5 Y0.1 M03 S1000
X5.6 Y0 M03 S0
X5.7 Y0 M03 S0
X5.6 Y0.1 M03 S1000
X5.2 Y0.5 M03 S1000
X5.1 Y0.6 M03 S0
X5.2 Y0.6 M03 S0
X5.3 Y0.5 M03 S1000
X5.7 Y0.1 M03 S1000
X5.8 Y0 M03 S0
X5.9 Y0 M03 S0
X5.8 Y0.1 M03 S1000
X5.2 Y0.7 M03 S1000
X5.1 Y0.8 M03 S0
X5.2 Y0.8 M03 S0
X5.3 Y0.7 M03 S1000
X5.9 Y0.1 M03 S1000
X6 Y0 M03 S0
X6.1 Y0 M03 S0
X6 Y0.1 M03 S1000
X5.2 Y0.9 M03 S1000
